flutter/assets/keyboard.svg

<svg xmlns="http://www.w3.org/2000/svg" width="32pt" height="32pt" style="isolation:isolate" viewBox="541.937 521.772 32 32"><path fill="none" d="M541.937 521.772h32v32h-32v-32Z"/><path fill-rule="evenodd" d="M552.145 539.981h11.584c.446 0 .808.362.808.808v.536c0 .786-.639 1.425-1.425 1.425h-10.35a1.426 1.426 0 0 1-1.425-1.425v-.536c0-.446.362-.808.808-.808Zm-1.761-3.511h.899c.536 0 .971.435.971.971v.899a.971.971 0 0 1-.971.971h-.899a.971.971 0 0 1-.971-.971v-.899c0-.536.435-.971.971-.971Zm3.552 0h.899c.536 0 .971.435.971.971v.899a.971.971 0 0 1-.971.971h-.899a.972.972 0 0 1-.972-.971v-.899c0-.536.436-.971.972-.971Zm3.551 0h.9c.536 0 .971.435.971.971v.899a.971.971 0 0 1-.971.971h-.9a.971.971 0 0 1-.971-.971v-.899c0-.536.435-.971.971-.971Zm3.552 0h.899c.536 0 .972.435.972.971v.899a.972.972 0 0 1-.972.971h-.899a.971.971 0 0 1-.971-.971v-.899c0-.536.435-.971.971-.971Zm3.552 0h.899c.536 0 .971.435.971.971v.899a.971.971 0 0 1-.971.971h-.899a.971.971 0 0 1-.971-.971v-.899c0-.536.435-.971.971-.971Zm-14.383-3.512h1.25c.44 0 .796.357.796.796v1.25a.796.796 0 0 1-.796.796h-1.25a.796.796 0 0 1-.795-.796v-1.25c0-.439.356-.796.795-.796Zm3.552 0h1.25c.439 0 .796.357.796.796v1.25a.797.797 0 0 1-.796.796h-1.25a.797.797 0 0 1-.796-.796v-1.25c0-.439.357-.796.796-.796Zm3.552 0h1.25c.439 0 .796.357.796.796v1.25a.797.797 0 0 1-.796.796h-1.25a.797.797 0 0 1-.796-.796v-1.25c0-.439.357-.796.796-.796Zm3.552 0h1.25c.439 0 .796.357.796.796v1.25a.797.797 0 0 1-.796.796h-1.25a.797.797 0 0 1-.796-.796v-1.25c0-.439.357-.796.796-.796Zm-9.553-3.85h13.252c1.407 0 2.755.507 3.748 1.409.993.902 1.552 2.127 1.552 3.404v7.702c0 1.277-.559 2.501-1.552 3.403-.993.902-2.341 1.409-3.748 1.409h-13.252c-1.407 0-2.755-.507-3.748-1.409-.993-.902-1.552-2.126-1.552-3.403v-7.702c0-1.277.559-2.502 1.552-3.404.993-.902 2.341-1.409 3.748-1.409Zm13.105 3.85h1.25c.439 0 .795.357.795.796v1.25a.796.796 0 0 1-.795.796h-1.25a.796.796 0 0 1-.796-.796v-1.25c0-.439.356-.796.796-.796Z"/></svg>

<?xml version="1.0" encoding="UTF-8" standalone="no"?>
<svg xmlns="http://www.w3.org/2000/svg" xmlns:xlink="http://www.w3.org/1999/xlink" style="isolation:isolate" viewBox="541.937 521.772 32 32" width="32pt" height="32pt"><g><path d=" M 541.937 521.772 L 573.937 521.772 L 573.937 553.772 L 541.937 553.772 L 541.937 521.772 Z " fill="none"/><path d=" M 552.145 539.981 L 563.729 539.981 C 564.175 539.981 564.537 540.343 564.537 540.789 L 564.537 541.325 C 564.537 542.111 563.898 542.75 563.112 542.75 L 552.762 542.75 C 551.975 542.75 551.337 542.111 551.337 541.325 L 551.337 540.789 C 551.337 540.343 551.699 539.981 552.145 539.981 L 552.145 539.981 L 552.145 539.981 L 552.145 539.981 L 552.145 539.981 L 552.145 539.981 L 552.145 539.981 L 552.145 539.981 L 552.145 539.981 L 552.145 539.981 L 552.145 539.981 Z  M 550.384 536.47 L 551.283 536.47 C 551.819 536.47 552.254 536.905 552.254 537.441 L 552.254 538.34 C 552.254 538.876 551.819 539.311 551.283 539.311 L 550.384 539.311 C 549.848 539.311 549.413 538.876 549.413 538.34 L 549.413 537.441 C 549.413 536.905 549.848 536.47 550.384 536.47 L 550.384 536.47 L 550.384 536.47 L 550.384 536.47 L 550.384 536.47 L 550.384 536.47 L 550.384 536.47 L 550.384 536.47 L 550.384 536.47 L 550.384 536.47 Z  M 553.936 536.47 L 554.835 536.47 C 555.371 536.47 555.806 536.905 555.806 537.441 L 555.806 538.34 C 555.806 538.876 555.371 539.311 554.835 539.311 L 553.936 539.311 C 553.4 539.311 552.964 538.876 552.964 538.34 L 552.964 537.441 C 552.964 536.905 553.4 536.47 553.936 536.47 L 553.936 536.47 L 553.936 536.47 L 553.936 536.47 L 553.936 536.47 L 553.936 536.47 L 553.936 536.47 L 553.936 536.47 L 553.936 536.47 Z  M 557.487 536.47 L 558.387 536.47 C 558.923 536.47 559.358 536.905 559.358 537.441 L 559.358 538.34 C 559.358 538.876 558.923 539.311 558.387 539.311 L 557.487 539.311 C 556.951 539.311 556.516 538.876 556.516 538.34 L 556.516 537.441 C 556.516 536.905 556.951 536.47 557.487 536.47 L 557.487 536.47 L 557.487 536.47 L 557.487 536.47 L 557.487 536.47 L 557.487 536.47 L 557.487 536.47 L 557.487 536.47 Z  M 561.039 536.47 L 561.938 536.47 C 562.474 536.47 562.91 536.905 562.91 537.441 L 562.91 538.34 C 562.91 538.876 562.474 539.311 561.938 539.311 L 561.039 539.311 C 560.503 539.311 560.068 538.876 560.068 538.34 L 560.068 537.441 C 560.068 536.905 560.503 536.47 561.039 536.47 L 561.039 536.47 L 561.039 536.47 L 561.039 536.47 L 561.039 536.47 L 561.039 536.47 L 561.039 536.47 Z  M 564.591 536.47 L 565.49 536.47 C 566.026 536.47 566.461 536.905 566.461 537.441 L 566.461 538.34 C 566.461 538.876 566.026 539.311 565.49 539.311 L 564.591 539.311 C 564.055 539.311 563.62 538.876 563.62 538.34 L 563.62 537.441 C 563.62 536.905 564.055 536.47 564.591 536.47 L 564.591 536.47 L 564.591 536.47 L 564.591 536.47 L 564.591 536.47 L 564.591 536.47 Z  M 550.208 532.958 L 551.458 532.958 C 551.898 532.958 552.254 533.315 552.254 533.754 L 552.254 535.004 C 552.254 535.443 551.898 535.8 551.458 535.8 L 550.208 535.8 C 549.769 535.8 549.413 535.443 549.413 535.004 L 549.413 533.754 C 549.413 533.315 549.769 532.958 550.208 532.958 L 550.208 532.958 L 550.208 532.958 L 550.208 532.958 L 550.208 532.958 Z  M 553.76 532.958 L 555.01 532.958 C 555.449 532.958 555.806 533.315 555.806 533.754 L 555.806 535.004 C 555.806 535.443 555.449 535.8 555.01 535.8 L 553.76 535.8 C 553.321 535.8 552.964 535.443 552.964 535.004 L 552.964 533.754 C 552.964 533.315 553.321 532.958 553.76 532.958 L 553.76 532.958 L 553.76 532.958 L 553.76 532.958 Z  M 557.312 532.958 L 558.562 532.958 C 559.001 532.958 559.358 533.315 559.358 533.754 L 559.358 535.004 C 559.358 535.443 559.001 535.8 558.562 535.8 L 557.312 535.8 C 556.873 535.8 556.516 535.443 556.516 535.004 L 556.516 533.754 C 556.516 533.315 556.873 532.958 557.312 532.958 L 557.312 532.958 L 557.312 532.958 Z  M 560.864 532.958 L 562.114 532.958 C 562.553 532.958 562.91 533.315 562.91 533.754 L 562.91 535.004 C 562.91 535.443 562.553 535.8 562.114 535.8 L 560.864 535.8 C 560.425 535.8 560.068 535.443 560.068 535.004 L 560.068 533.754 C 560.068 533.315 560.425 532.958 560.864 532.958 L 560.864 532.958 Z  M 551.311 529.108 L 564.563 529.108 C 565.97 529.108 567.318 529.615 568.311 530.517 C 569.304 531.419 569.863 532.644 569.863 533.921 L 569.863 541.623 C 569.863 542.9 569.304 544.124 568.311 545.026 C 567.318 545.928 565.97 546.435 564.563 546.435 L 551.311 546.435 C 549.904 546.435 548.556 545.928 547.563 545.026 C 546.57 544.124 546.011 542.9 546.011 541.623 L 546.011 533.921 C 546.011 532.644 546.57 531.419 547.563 530.517 C 548.556 529.615 549.904 529.108 551.311 529.108 L 551.311 529.108 L 551.311 529.108 L 551.311 529.108 L 551.311 529.108 L 551.311 529.108 L 551.311 529.108 L 551.311 529.108 L 551.311 529.108 L 551.311 529.108 L 551.311 529.108 Z  M 564.416 532.958 L 565.666 532.958 C 566.105 532.958 566.461 533.315 566.461 533.754 L 566.461 535.004 C 566.461 535.443 566.105 535.8 565.666 535.8 L 564.416 535.8 C 563.976 535.8 563.62 535.443 563.62 535.004 L 563.62 533.754 C 563.62 533.315 563.976 532.958 564.416 532.958 Z " fill-rule="evenodd" fill="rgb(0,0,0)"/></g></svg>
